public/zeit-white-full-logo.svg

<svg width="230" height="45" xmlns="http://www.w3.org/2000/svg"><defs><linearGradient x1="196.572%" y1="228.815%" x2="50%" y2="50%" id="a"><stop offset="0%"/><stop stop-color="#FFF" offset="100%"/></linearGradient></defs><g fill="none"><path fill="url(#a)" d="M25 0l25 44.146H0z"/><path d="M85.75 34h20.45v-3.55H90.85l15.1-21.55V5.8H86v3.55h14.85L85.75 30.9V34zm41.85 0h18.35v-3.55h-14.2V21.4h12.35v-3.55h-12.35v-8.5h14.2V5.8H127.6V34zm40.45 0h17.9v-3.55h-6.85V9.35h6.85V5.8h-17.9v3.55h6.9v21.1h-6.9V34zm47.35 0h4.15V9.35h9.6V5.8H205.9v3.55h9.5V34z" fill="#FFF"/></g></svg>

<?xml version="1.0" encoding="UTF-8"?>
<svg width="230px" height="45px" viewBox="0 0 230 45" version="1.1" xmlns="http://www.w3.org/2000/svg" xmlns:xlink="http://www.w3.org/1999/xlink">
    <!-- Generator: Sketch 51.2 (57519) - http://www.bohemiancoding.com/sketch -->
    <title>White Full Logo</title>
    <desc>Created with Sketch.</desc>
    <defs>
        <linearGradient x1="196.572434%" y1="228.815483%" x2="50%" y2="50%" id="linearGradient-1">
            <stop stop-color="#000000" offset="0%"></stop>
            <stop stop-color="#FFFFFF" offset="100%"></stop>
        </linearGradient>
    </defs>
    <g id="Page-1" stroke="none" stroke-width="1" fill="none" fill-rule="evenodd">
        <g id="White-Full-Logo" transform="translate(-235.000000, -178.000000)" fill-rule="nonzero">
            <g transform="translate(235.000000, 178.000000)">
                <polygon id="Triangle" fill="url(#linearGradient-1)" points="25 0 50 44.146173 0 44.146173"></polygon>
                <path d="M85.75,34 L106.2,34 L106.2,30.45 L90.85,30.45 L105.95,8.9 L105.95,5.8 L86,5.8 L86,9.35 L100.85,9.35 L85.75,30.9 L85.75,34 Z M127.6,34 L145.95,34 L145.95,30.45 L131.75,30.45 L131.75,21.4 L144.1,21.4 L144.1,17.85 L131.75,17.85 L131.75,9.35 L145.95,9.35 L145.95,5.8 L127.6,5.8 L127.6,34 Z M168.05,34 L185.95,34 L185.95,30.45 L179.1,30.45 L179.1,9.35 L185.95,9.35 L185.95,5.8 L168.05,5.8 L168.05,9.35 L174.95,9.35 L174.95,30.45 L168.05,30.45 L168.05,34 Z M215.4,34 L219.55,34 L219.55,9.35 L229.15,9.35 L229.15,5.8 L205.9,5.8 L205.9,9.35 L215.4,9.35 L215.4,34 Z" id="ZEIT" fill="#FFFFFF"></path>
            </g>
        </g>
    </g>
</svg>
